X:1
T:O, Fear Not the Future!
T:O, Fear Not the Future!
T:Lewis Sperry Chafer
T:A. E. Abel, 1903
T:Public Domain Courtesy of the Cyber Hymnal™
T:Public Domain Courtesy of the Cyber Hymnal™
C:Lewis Sperry Chafer
Z:Public Domain
Z:Courtesy of the Cyber Hymnal™
%%score ( 1 2 ) ( 3 4 )
L:1/8
Q:1/4=82
M:6/8
K:Eb
V:1 treble 
V:2 treble 
V:3 bass 
V:4 bass 
V:1
 B, | B,[B,E][DF] [EG][EG][EG] | [DG][DF]B, [B,E]2 ([_DE]/[DE]/) | [CA][CE][CF] [B,G][EG][EG] | %4
w: 1.~O,|fear not the fu- ture! ’Tis|hid- den in love, But *|known to Thy Sav- ior who|
w: 2.~O,|fear not the fu- ture! Thou|art not a- lone; He~who *|died for His sheep ne’er for-|
w: 3.~O,|fear not the fu- ture! What|hast thou to fear? Thy *|foes are all van- quished, thy|
w: 4.~O,|fear not the fu- ture! The|tri- als that come Are *|sent to pre- pare thee for|
 [EG][EF][EG] [DF]2 B, | B,[B,E][DF] [EG][DF]E | [EA][GB][^Fc] [GB]2 [GB]/[GB]/ | %7
w: reign- eth a- bove; The|path for thy steps He Him-|self doth pre- pare, And the|
w: sak- eth His own; E’en|thro’ the dark val- ley no|ill can be- tide, For Je-|
w: cap- tain is near; His|grace is suf- fi- cient; His|prom- is- es sure; And the|
w: ser- vice and home; Rich|gains are thy loss- es, swift|wings are thy sighs, And thy|
 [Ge][EB][Ec] [EB][EG][EG] | [EG][DG][DF] E2 ||"^Refrain" [EB] | [DB][DF][DF] [DF][EG][DA] | %11
w: light of His pre- sence shall|go with thee there.|||
w: ho- vah will be thy com-|pan- ion and guide.|||
w: arms un- der- neath thee for|aye shall en- dure.|O,|fear not the fu- ture! Thy|
w: tears shall bring vi- sions of|joy to thine eyes.|||
 [EG][DG][DF] E2 E | E[EG][EG] [DA][EG][EG] | [E=A][EB][Ec] [DB]2 [DB] | %14
w: |||
w: |||
w: crown wait- eth there! The|glor- ies be- fore thee no|tongue can de- clare; Go|
w: |||
 [Ee][Ee][Ee] [EB][DA][_DG] | [CF]F[=EG] !fermata![FA]2 [Ec] | [EB][DB][FB] [EB][EG]E | %17
w: |||
w: |||
w: for- ward with Je- sus; He|know- eth the way To|man- sions pre- pared for the|
w: |||
 [EG][DG][DF] E2 |] %18
w: |
w: |
w: child- ren of day.|
w: |
V:2
 B, | B, x5 | x2 B, x3 | x6 | x5 B, | B, x3 E x | x6 | x6 | x3 E2 || x | x6 | x3 E2 E | E x5 | x6 | %14
 x6 | x F x4 | x5 E | x3 E2 |] %18
V:3
 [E,G,] | [E,G,][E,G,][E,A,] [E,B,][E,B,][E,B,] | [B,,B,][B,,A,][D,A,] [E,G,]2 ([E,G,]/[E,G,]/) | %3
 [A,,A,][A,,A,][A,,E,] E,[E,B,][E,B,] | [F,B,][F,=A,][F,A,] [B,,B,]2 [D,_A,] | %5
 [E,G,][E,G,][E,A,] [E,B,][E,A,][E,G,] | [E,C][E,B,][E,=A,] [E,B,]2 [E,B,]/[E,B,]/ | %7
 [E,B,][G,B,]A, [G,B,][E,B,][G,,B,] | [B,,B,][B,,B,][B,,A,] [E,G,]2 || [E,G,] | %10
 [B,,B,][A,B,][A,B,] [A,B,][G,B,][F,B,] | [E,B,][B,,B,][B,,A,] [E,G,]2 [E,G,] | %12
 [C,G,][C,E,][C,E,] [=B,,F,][C,E,][C,C] | [F,C][F,G,][F,=A,] [B,,B,]2 [_A,B,] | %14
 [G,B,][G,B,][G,B,] [G,B,][F,B,][E,B,] | [A,C][A,C][G,D] [F,D]2 [^F,=A,] | %16
 [G,B,][F,B,][A,B,] [G,B,][E,B,][E,G,] | [B,,B,][B,,B,][B,,A,] [E,G,]2 |] %18
V:4
 x | x6 | x6 | x3 E, x2 | x6 | x6 | x6 | x2 A, x3 | x5 || x | x6 | x6 | x6 | x6 | x6 | x6 | x6 | %17
 x5 |] %18

